X: 551
T: Elzic's Farewell
B: jims roots
M:4/4
L:1/8
R: reel
Q: 1/4=100
K:Ador
V:1 
AA c2 d2 |:"Am"[e2e2][e4e4] d2 | "C"c3 d "G"cA G2 | "Am"ea2 ea2 ef |"G"gfga "(Em)"ge d2 |
"Am"[e2e2][e4e4] d2 | "C"c3 d "G"cA G2 |"Am"ABAG EGAc |"G (E)"ecdB "Am"A4:|
|:"Am"[AA]cAG EGAc | "D"dcde dcAc | dcde dcAG | "Am"cAAG [A2A2][A2A2]|
"D"dedc A2 c2 | dedc A2 c2 |dedc AGAB | [1 "Am"[A4A4] A2 c2:| "Am"[2 A4 |]
|:"Am"A,2 C2 "D"DEDC | A,G,A,C DEDC | A,G,A,C DEDC | A,C DC "Am"A,2 A,2 |
A,2 C2 "D"D3 C | A,G,A,C DEDC | A,G,A,C DEDC | A,CDC "Am"A,2 :|
V:2 "Am"cAAG A2 Ac ||[P:C Section
"D"dedc A2 c2 |dedc A2 c2 | dedc AGAB | "Am"A4 A2 c2 |
V:AA 
cAG EGAc | "D"dcde dcAc | dcde dcAG | [1 "Am"cAAG A2 A2:|
% abcbook-tune_id 6298c25dbcfe07b89f9217d6


% abcbook-boost 0
% abcbook-tablature 
% abcbook-transpose 
% abcbook-lastupdated 1654178397876
% abcbook-soundfonts 
% abcbook-repeats 1


